suite-common/icons/assets/icons/shield.svg

<svg xmlns="http://www.w3.org/2000/svg" fill="none" viewBox="0 0 24 24">
  <path d="M4.92 3.555c-.925.025-.944.027-1.169.137-.288.142-.664.518-.805.807-.182.372-.194.635-.176 4.112.018 3.511.027 3.67.272 4.869a11.4 11.4 0 0 0 3.163 5.879c1.176 1.175 2.405 2.031 3.981 2.77 1.171.55 1.729.674 2.311.514.958-.262 2.495-1.051 3.617-1.856 2.938-2.105 4.617-4.954 5.05-8.567.055-.46.094-6.301.046-6.985-.031-.439-.051-.535-.153-.737a2.04 2.04 0 0 0-.827-.81l-.258-.127-7.056-.016c-3.881-.009-7.479-.004-7.996.01M19.233 5.54c.052.051.027 5.604-.027 6.24-.065.762-.173 1.401-.331 1.96-.786 2.782-2.729 5.023-5.595 6.452-.341.17-.776.362-.966.427l-.347.117-.393-.155c-1.911-.755-3.733-2.124-4.88-3.668a9.8 9.8 0 0 1-1.833-4.393c-.076-.491-.151-3.751-.132-5.76l.011-1.22.42-.025c.553-.034 14.039-.009 14.073.025"/>
</svg>

<svg xmlns="http://www.w3.org/2000/svg" fill="none" viewBox="0 0 24 24"><path d="M4.920 3.555 C 3.995 3.580,3.976 3.582,3.751 3.692 C 3.463 3.834,3.087 4.210,2.946 4.499 C 2.764 4.871,2.752 5.134,2.770 8.611 C 2.788 12.122,2.797 12.281,3.042 13.480 C 3.504 15.744,4.568 17.722,6.205 19.359 C 7.381 20.534,8.610 21.390,10.186 22.129 C 11.357 22.679,11.915 22.803,12.497 22.643 C 13.455 22.381,14.992 21.592,16.114 20.787 C 19.052 18.682,20.731 15.833,21.164 12.220 C 21.219 11.760,21.258 5.919,21.210 5.235 C 21.179 4.796,21.159 4.700,21.057 4.498 C 20.900 4.188,20.551 3.846,20.230 3.688 L 19.972 3.561 12.916 3.545 C 9.035 3.536,5.437 3.541,4.920 3.555 M19.233 5.540 C 19.285 5.591,19.260 11.144,19.206 11.780 C 19.141 12.542,19.033 13.181,18.875 13.740 C 18.089 16.522,16.146 18.763,13.280 20.192 C 12.939 20.362,12.504 20.554,12.314 20.619 L 11.967 20.736 11.574 20.581 C 9.663 19.826,7.841 18.457,6.694 16.913 C 5.730 15.616,5.110 14.131,4.861 12.520 C 4.785 12.029,4.710 8.769,4.729 6.760 L 4.740 5.540 5.160 5.515 C 5.713 5.481,19.199 5.506,19.233 5.540 " stroke="none" fill-rule="evenodd"></path></svg>
